X:1
T:O Holy Night
T:Adolphe Adam (1803-1856) (CANTIQUE DE NOEL)
T:O Holy Night
T:John S. Dwight
T:Public Domain
T:Public Domain
T:Public Domain
C:Adolphe Adam (1803-1856)
Z:Public Domain
%%score ( 1 2 ) ( 3 4 ) { ( 5 7 ) | ( 6 8 ) }
L:1/8
Q:1/4=55
M:none
K:D
V:1 treble nm="Voice"
V:2 treble 
V:3 bass nm="Voice"
V:4 bass 
V:5 treble nm="Piano (2)"
V:7 treble 
V:6 bass 
V:8 bass 
V:1
"^1: SOLO/SA;/SATB as written\n2: SATB" x4 | x8 | x8 |!p! x8 |: z4"^1: SOLO\n2: SATB" F2 F>F | %5
w: ||||1.O ho- ly|
w: ||||2.Tru- ly He|
 (A2 A3/2)!<(! A/ B>B!<)!!mp!G>!>(!B | (d4 A3/2)!>)!!p! A<FE/ | D2 F>G A2 G>E | D8 | %9
w: night! * the stars are bright- ly|shin- ing; It is the|night of the dear Sav- iour's|birth.|
w: taught us to love * one an-|oth- er, His law is|love and his gos- pel is|peace.|
 z4"^1:S&A\n2:SATB" F2 F>F | (A2!<(! A3/2) A/ B>BG>B | (d4!<)!!mf! A3/2) A<^GF/ | c2 A>B c2 d>c | %13
w: Long lay the|world * in sin and er- ror|pi- ning, Till he ap-|peared and the soul felt its|
w: Chains shall he|break for the slave * is our|bro- ther, And in his|name all op- pres- sion shall|
 F6 x!p! A | A2 B2 E2 A2 | B>Ad>F B2 A3/2 A/ | A2 B2 E2 A2 | B>Ad>F A4 || %18
w: worth. A|thrill of hope\- the|wea- ry world re- joi- ces, For|yon- der breaks a|new and glor- ious morn!|
w: cease. Sweet|hymns of joy in|grate- ful cho- rus raise we; Let|all with- in us|praise his ho- ly name.|
"^SATB ALL VERSES"!f! d6 c>B | c6 cc | e4 e>BB>B | d4- d3 d | (f4 e3) A | d4- d2 (c>B) | %24
w: Fall on your|knees! O *|hear the an- gel voi-|ces! * O|night * di-|vine, * O *|
w: Christ is the|Lord! O *|Praise his name for- e-|ver! * His|power * and|glo- * ry *|
 A4- x3/2 A<BA/ | A6 d2 |1 e4- e3 A | f6 e2 | d4 c2 d>e | d6 x2 :|2 %30
w: night when Christ was|born! O|night, * O|ho- ly|night, O night di-|vine!|
w: e- ver more pro-|claim! His|power * and|glo- ry|e- ver more pro-||
 e6"^DIV: S-Solist top line; S-A 2nd" e2 || a4- agfe | d4 c2 d>e | d8 |] %34
w: power and|glor- * * * *|e- ver more pro-|claim!|
w:   *||||
V:2
 x4 | x8 | x8 | x8 |: x4 D2 D>D | D2- D3/2 D/ D>DD>D | F4- F3/2 F<DD/ | D2 D>D C2 C>C | D8 | %9
w: |||||||||
 z4 D2 D>D | F2 F3/2 F/ G>GG>G | (F4 F3/2) F<FF/ | A2 F>F ^E2 E>E | F6 z F | G2 G2 E2 E2 | %15
w: ||||||
 F>FF>F F2 F>F | G2 G2 E2 E2 | F>FF>F F4 || F6 F>F | A6 FF | G4 G>GG>G | F4- F3 F | (A4 A3) A | %23
w: ||||||||
 (A4 B2) (A>G) | (F4 [GA]3/2) G<GG/ | F6 A2 |1 A4- A3 A | (A4 B2) B2 | A4 G2 G>G | F6 x2 :|2 %30
w: |||||||
 A6 A2 || (A4 B2) B2 | A4 G2 F>G | F8 |] %34
w: |* * ry|||
V:3
 x4 | x8 | x8 |!p! z8 |: z4 A,2 A,>A, | C,2 A,>A,!<(! G,>G,!<)!!mp!!>(!B,>G, | %6
 (A,4!>)! D3/2)!p! D<A,G,/ | F,2 A,>A, A,2 A,>G, | F,8 | z4 A,2 A,>A, | %10
 A,2!<(! A,3/2 A,/ G,>G,B,>B, | (A,4!<)!!mf! D3/2) A,<B,A,/ | A,2 A,>A, ^G,2 B,>B, | A,6 z!p! C | %14
 C2 C2 C2 C2 | D>DD>D A,2 A,>A, | C2 C2 C2 C2 | D>DD>D A,4 ||!f! D6 E>D | C6 A,A, | B,4 B,>EE>E | %21
 D4- D3 D | (D4 C3) C | D4- D2 (D>D) | (D4 C3/2) C<CC/ | D6 D2 |1 C4- C3 C | (D4 D2) DE | %28
 F4 E2 D>C | D6 x2 :|2 C6 C2 || (D2 =C2) B,2 E2 | F4 E2 D>C | D8 |] %34
V:4
 x4 | x8 | x8 | x8 |: x4 D,2 D,>D, | F,2- F,>F, G,>G,G,>G, | D,4- D,3/2 D,<D,D,/ | %7
 D,2 D,>D, A,,2 A,,>A,, | D,8 | z4 D,2 D,>D, | F,2 F,>F, G,>G,G,>G, | D,4- D,3/2 D,<D,D,/ | %12
 C,2 C,>C, C,2 C,>C, | F,6 z F, | E,2 E,2 A,2 A,2 | D,>D,D,>D, D,2 D,>D, | E,2 E,2 A,2 A,2 | %17
 D,>D,D,>D, D,4 || B,6 B,>B, | A,6 F,F, | E,4 E,>E,E,>E, | B,4- B,3 B, | (A,4 G,3) G, | %23
 (F,4 G,2) (G,>G,) | (A,4 A,,3/2) A,,<A,,A,,/ | D,6 F,2 |1 A,4- A,3 G, | (F,4 G,2) G,2 | %28
 A,4 A,2 A,>A,, | D,6 z2 :|2 A,6 G,2 || F,4 G,2 G,2 | A,4 A,2 A,>A, | D,8 |] %34
V:5
!p! [DF]2 [DF]>F | A2- A>A B2 G>B | [^Ed]4 [Ed][^eb][ec'][ed'] | f'd'af f2 e2 |: %4
 (3:2:6F,DA,FDA, (3:2:6F,DA,FDA, | (3:2:6F,DA,FDA, (3:2:6G,DB,GDB, | %6
 (3:2:6F,DA,FDA, (3:2:6F,DA,FDA, | (3:2:6F,DA,FDA, (3:2:6G,CA,ECA, | %8
 (3:2:6F,DA,FDA, (3:2:6F,DA,FDA, | (3:2:6F,DA,FDA, (3:2:6F,DA,FDA, | %10
 (3:2:6F,DA,FDA, (3:2:6G,DB,GDB, | (3:2:6F,DA,FDA, (3:2:6F,^B,A,FB,A, | %12
 (3:2:6F,CA,FCA, (3:2:6^G,CB,^ECB, | (3:2:6F,CA,FCA, (3:2:6F,CA,FCA, | %14
 (3:2:6G,CA,ECA, (3:2:6G,CA,ECA, | (3:2:6F,DA,FDA, (3:2:6F,DA,FDA, | %16
 (3:2:6G,CA,ECA, (3:2:6G,CA,ECA, | (3:2:6F,DA,FDA, (3:2:6F,DA,FDA, || defd Bdcf/B/ | A-cf^g agfc | %20
 eBef gabc' | d'bd'e' [bd']2 [Fd]2 | [Af]4 [Ae]3 A | [Ad]4 [Bd]2 [Ac]>[GB] | %24
 [FA]4 [CGA]>[CGA][CGB]>[CGA] | [DFA]6 [FAd]2 |1 [EAce]4 [EGce]3 [A,CEA] | [FA]4 [FB]2 [EB]2 | %28
 [DFAd]4 [EGAc]2 [EGAd]>[EGce] | (3:2:6[DFAd]DA,FDA, (3:2:6F,DA,DFA :|2 [EGAe]6 [CEA]2 || %31
 [A-da-]2 [Ada]2 agfe | [FAd]4 [EGc]2 [FAd]>[GAe] | [FAd]8 |] %34
V:6
!p! [D,A,]4 | [F,A,]4 [G,B,]4 | [^G,B,]4 [G,B,] x3 | x4 [A,G]4 |: [D,,A,,D,]8 | %5
 [D,,A,,D,]4 [G,,D,]4 | [D,,A,,D,]4 [F,,D,]4 | [A,,,A,,]8 | [D,,A,,D,]8 | [D,,A,,D,]8 | %10
 [D,,A,,D,]4 [G,,D,]4 | [D,,A,,D,]4 [D,,D,]4 | [C,,C,]4 [C,,C,]4 | F,,4 x4 | C,2 A,,2 C,2 A,,2 | %15
 D,2 A,,2 D,2 A,,2 | C,2 A,,2 C,2 A,,2 | D,2 A,,2 [D,,A,,]2 x2 || [B,D]6 E>D | %19
 [F,C]6- [F,C][F,A,] | B,6 G,2 | [B,,F,]6 [B,D]2 | [A,D]4 [G,C]3 [G,C] | [F,D]4 [G,D]2 [G,D]2 | %24
 [A,D]4 A,,4 | [D,D]2 [C,C]2 [B,,B,]2 [A,,A,]2 |1 [A,,A,]4 [G,,G,]4 | [F,,F,]4 [G,,G,]4 | %28
 [A,,A,]2 [A,,,A,,]2 [A,,,A,,]2 [A,,A,]2 | [D,,A,,D,]8 :|2 [C,C]2 [B,,B,]2 [A,,A,]2 [G,,G,]2 || %31
 [F,,F,]4 [G,,G,]2 [G,,G,]2 | [A,,A,]4 [A,,A,]2 [A,,,A,,]2 | [D,,D,]8 |] %34
V:7
 x4 | D4 D4 | x4 [^GB][GB][GB] x | [Adf]4 c4 |: x8 | x8 | x8 | x8 | x8 | x8 | x8 | x8 | x8 | x8 | %14
 x8 | x8 | x8 | x8 || F6 F2 | x A- A4- AA | G4 B2 e2 | d6 x2 | x8 | x8 | x8 | x8 |1 x8 | f6 e2 | %28
 x8 | x8 :|2 x8 || x4 [=cd]2 B2 | x8 | x8 |] %34
V:8
 x4 | x8 | x8 | x8 |: x8 | x8 | x8 | x8 | x8 | x8 | x8 | x8 | x8 | x8 | C,,8 | D,,8 | C,,8 | %17
 D,,4 x4 || x6 B,2 | x8 | E,8 | x8 | x8 | x8 | x8 | x8 |1 x8 | x8 | x8 | x8 :|2 x8 || x8 | x8 | %33
 x8 |] %34

